X:836
T:Deveron Reel
C:Neil Grant
S:Session, Wormit, 7/5/06
Z:Nigel Gatherer
M:2/4
L:1/8
K:D
DD F/E/D/F/ | AA B/A/F/A/ | dd       f/e/d/e/ | fe ef  |
DD F/E/D/F/ | AA B/A/F/A/ | df       e/f/g/a/ | fd d2 :|
ff d/e/f/d/ | eA A>A      | BB       G/A/B/G/ | AD D2  |
GG E/F/G/E/ | FA d>A      | B/A/G/F/ E/F/G/A/ | FD D2  |
ff d/e/f/d/ | eA A>A      | BB       G/A/B/G/ | AD D2  |
GG E/F/G/E/ | FA d>a      | b/a/g/f/ e/f/g/a/ | fd d2 ||
<end>
<start>
